X:5
T:Sporting Pitchfork, The
S:P. Glackin
E:10
R:jig
I:speed 350
M:6/8
K:G
AG|~F3 ~E3|~F3 DEF|GFG AGE|cAG FGA|\
BdB BAG|ABA ABc|dcA AGF|AGF G2:|*
B|d2e fed|fgf def|gfg bag|fdd d2c|\
BdB BAG|ABA ABc|dcA AGF|AGF G2:|** 
<end>
<start>
